X:1
T:Dem Bones Gonna Rise Again
M:4/4
L:1/4
K:C
 G E G E| G/2 A3/2 G2| G G2 F/2F/2| E3/2 D/2 C2| G E G E| G/2 A3/2 G2|\
 G G2 F/2F/2| E3/2 D/2 C2| G4| A G E/2 G3/2| c c3| d c A c| G3 G| A G E/2 G3/2|\
 G G2 F/2F/2| E3/2 D/2 C2|
